src/images/mentore-logotype.svg

<svg width="174" height="36" viewBox="0 0 174 36" fill="none" xmlns="http://www.w3.org/2000/svg">
<g clip-path="url(#clip0_0_32)">
<path d="M60.1853 25.7097H44.628C45.2862 27.8951 47.1411 29.17 49.8935 29.17C51.9878 29.17 53.364 28.5629 54.8001 27.2881L58.7492 31.4768C56.7148 33.7837 53.723 34.9978 49.6542 34.9978C42.055 34.9978 37.0886 30.202 37.0886 23.7671C37.0886 17.2108 42.1148 12.5972 48.8763 12.5972C55.2189 12.5972 60.3049 16.6645 60.3049 23.8278C60.3049 24.3742 60.245 25.1027 60.1852 25.7097L60.1853 25.7097ZM44.5082 21.7031H53.3041C52.8852 19.3963 51.2697 18 48.9361 18C46.6025 17.9393 44.9869 19.3963 44.5082 21.7031Z" fill="#727272"/>
<path d="M83.5812 14.6612C84.7779 16.0574 85.3763 18.1214 85.3763 20.7925V34.9977H77.5378V21.7638C77.5378 20.7925 77.2984 20.0641 76.8198 19.5177C76.3411 18.9713 75.6829 18.6678 74.8452 18.6678C73.8878 18.6678 73.11 18.9714 72.4517 19.6391C71.8534 20.3069 71.5542 21.096 71.5542 22.0674V34.9371H63.7157V13.0221H70.178L70.7165 16.361C71.5542 15.2075 72.6313 14.2969 73.9476 13.5685C75.2641 12.9007 76.7001 12.5364 78.1361 12.5364C80.5894 12.5364 82.3845 13.2649 83.5812 14.6612" fill="#727272"/>
<path d="M104.045 13.0221V18.3643H99.6171V26.9239C99.6171 27.8951 99.7966 28.5629 100.096 28.9879C100.395 29.4129 100.993 29.6557 101.831 29.6557H104.045V34.2693C103.387 34.4514 102.609 34.6336 101.592 34.755C100.574 34.8764 99.7368 34.9371 98.9589 34.9371C96.6253 34.9371 94.8302 34.5121 93.6335 33.6622C92.377 32.8124 91.7786 31.4161 91.7786 29.3521V18.3035H88.8467V12.9614H92.0778L93.7532 7.31567H99.6171V12.9614H104.045V13.0221H104.045Z" fill="#727272"/>
<path d="M127.082 15.3896C129.176 17.2715 130.193 20.064 130.193 23.7671C130.193 27.4094 129.176 30.2019 127.082 32.1445C124.988 34.0264 122.175 34.9977 118.525 34.9977C114.935 34.9977 112.063 34.0264 110.029 32.1445C107.994 30.2626 106.917 27.4701 106.917 23.7671C106.917 20.064 107.934 17.2714 110.029 15.3896C112.063 13.5077 114.935 12.5364 118.525 12.5364C122.175 12.5364 125.047 13.5078 127.082 15.3896ZM114.756 22.6137V24.9205C114.756 27.9559 116.012 29.4735 118.585 29.4735C121.158 29.4735 122.474 27.9559 122.474 24.9205V22.6137C122.474 19.5784 121.158 18 118.585 18C116.012 18.0608 114.756 19.5784 114.756 22.6137Z" fill="#727272"/>
<path d="M148.323 12.7792C148.802 12.9613 149.042 13.0221 149.042 13.0221V19.9426H146.528C144.913 19.9426 143.716 20.3675 142.998 21.2782C142.28 22.1888 141.921 23.4636 141.921 25.2241V34.9978H134.083V13.0828H140.545L141.083 16.4217C141.562 15.1468 142.28 14.1756 143.357 13.5685C144.374 12.9007 145.571 12.5972 146.828 12.5972C147.306 12.5365 147.845 12.5972 148.323 12.7794" fill="#727272"/>
<path d="M173.335 25.7097H157.777C158.436 27.8951 160.291 29.17 163.043 29.17C165.137 29.17 166.513 28.5629 167.95 27.2881L171.899 31.4768C169.864 33.7837 166.873 34.9978 162.804 34.9978C155.205 34.9978 150.238 30.202 150.238 23.7671C150.238 17.2108 155.264 12.5972 162.026 12.5972C168.368 12.5972 173.454 16.6645 173.454 23.8278C173.454 24.3742 173.395 25.1027 173.335 25.7097V25.7097ZM157.658 21.7031H166.454C166.035 19.3963 164.419 18 162.086 18C159.692 17.9393 158.077 19.3963 157.658 21.7031" fill="#727272"/>
<path d="M33.3106 8.43933H21.6869L16.6606 16.8168L11.5148 8.43933H0V36H7.80496V17.9702L13.5492 28.1082H19.5926L25.4565 17.606V29.7473H33.3106V8.43933Z" fill="#727272"/>
<path d="M25.46 32.5398H33.3141L33.3106 35.9393H25.4565L25.46 32.5398Z" fill="#727272"/>
<path d="M16.7486 10.3122L22.4835 0H10.8271L16.7486 10.3122Z" fill="#C54B30"/>
</g>
<defs>
<clipPath id="clip0_0_32">
<rect width="173.455" height="36" fill="white"/>
</clipPath>
</defs>
</svg>

<?xml version="1.0" encoding="utf-8"?>
<!-- Generator: Adobe Illustrator 26.3.1, SVG Export Plug-In . SVG Version: 6.00 Build 0)  -->
<svg version="1.1" id="Layer_1" xmlns="http://www.w3.org/2000/svg" xmlns:xlink="http://www.w3.org/1999/xlink" x="0px" y="0px"
	 viewBox="0 0 174 36" style="enable-background:new 0 0 174 36;" xml:space="preserve">
<style type="text/css">
	.st0{clip-path:url(#SVGID_00000122711287203165228800000018244364840207284388_);}
	.st1{fill:#535353;}
	.st2{fill:#C54B30;}
</style>
<g>
	<defs>
		<rect id="SVGID_1_" width="173.5" height="36"/>
	</defs>
	<clipPath id="SVGID_00000018224406277658301410000015712709270938566831_">
		<use xlink:href="#SVGID_1_"  style="overflow:visible;"/>
	</clipPath>
	<g style="clip-path:url(#SVGID_00000018224406277658301410000015712709270938566831_);">
		<path class="st1" d="M60.2,25.7H44.6c0.7,2.2,2.5,3.5,5.3,3.5c2.1,0,3.5-0.6,4.9-1.9l3.9,4.2c-2,2.3-5,3.5-9.1,3.5
			c-7.6,0-12.6-4.8-12.6-11.2c0-6.6,5-11.2,11.8-11.2c6.3,0,11.4,4.1,11.4,11.2C60.3,24.4,60.2,25.1,60.2,25.7L60.2,25.7z
			 M44.5,21.7h8.8c-0.4-2.3-2-3.7-4.4-3.7C46.6,17.9,45,19.4,44.5,21.7z"/>
		<path class="st1" d="M83.6,14.7c1.2,1.4,1.8,3.5,1.8,6.1V35h-7.8V21.8c0-1-0.2-1.7-0.7-2.2c-0.5-0.5-1.1-0.8-2-0.8
			c-1,0-1.7,0.3-2.4,1c-0.6,0.7-0.9,1.5-0.9,2.4v12.9h-7.8V13h6.5l0.5,3.3c0.8-1.2,1.9-2.1,3.2-2.8c1.3-0.7,2.8-1,4.2-1
			C80.6,12.5,82.4,13.3,83.6,14.7"/>
		<path class="st1" d="M104,13v5.3h-4.4v8.6c0,1,0.2,1.6,0.5,2.1c0.3,0.4,0.9,0.7,1.7,0.7h2.2v4.6c-0.7,0.2-1.4,0.4-2.5,0.5
			c-1,0.1-1.9,0.2-2.6,0.2c-2.3,0-4.1-0.4-5.3-1.3c-1.3-0.8-1.9-2.2-1.9-4.3v-11h-2.9V13h3.2l1.7-5.6h5.9V13L104,13L104,13L104,13z"
			/>
		<path class="st1" d="M127.1,15.4c2.1,1.9,3.1,4.7,3.1,8.4c0,3.6-1,6.4-3.1,8.4c-2.1,1.9-4.9,2.9-8.6,2.9c-3.6,0-6.5-1-8.5-2.9
			c-2-1.9-3.1-4.7-3.1-8.4c0-3.7,1-6.5,3.1-8.4c2-1.9,4.9-2.9,8.5-2.9C122.2,12.5,125,13.5,127.1,15.4z M114.8,22.6v2.3
			c0,3,1.3,4.6,3.8,4.6s3.9-1.5,3.9-4.6v-2.3c0-3-1.3-4.6-3.9-4.6C116,18.1,114.8,19.6,114.8,22.6z"/>
		<path class="st1" d="M148.3,12.8C148.8,13,149,13,149,13v6.9h-2.5c-1.6,0-2.8,0.4-3.5,1.3c-0.7,0.9-1.1,2.2-1.1,3.9V35h-7.8V13.1
			h6.5l0.5,3.3c0.5-1.3,1.2-2.2,2.3-2.9c1-0.7,2.2-1,3.5-1C147.3,12.5,147.8,12.6,148.3,12.8"/>
		<path class="st1" d="M173.3,25.7h-15.6c0.7,2.2,2.5,3.5,5.3,3.5c2.1,0,3.5-0.6,4.9-1.9l3.9,4.2c-2,2.3-5,3.5-9.1,3.5
			c-7.6,0-12.6-4.8-12.6-11.2c0-6.6,5-11.2,11.8-11.2c6.3,0,11.4,4.1,11.4,11.2C173.5,24.4,173.4,25.1,173.3,25.7L173.3,25.7z
			 M157.7,21.7h8.8c-0.4-2.3-2-3.7-4.4-3.7C159.7,17.9,158.1,19.4,157.7,21.7"/>
		<path class="st1" d="M33.3,8.4H21.7l-5,8.4l-5.1-8.4H0V36h7.8V18l5.7,10.1h6l5.9-10.5v12.1h7.9V8.4z"/>
		<path class="st1" d="M25.5,32.5h7.9l0,3.4h-7.9L25.5,32.5z"/>
		<path class="st2" d="M16.7,10.3L22.5,0H10.8L16.7,10.3z"/>
	</g>
</g>
</svg>
